X:1
T:Oh doctor, I'm terrified
T:Anonymous, included in Thomas Warren's collection of catches, canons and glees
T:Oh doctor, I'm terrified
T:a catch
T:Copyright © 
T:Copyright © 
T:Copyright © 
T:Copyright © 
T:Copyright © 
T:Copyright © 
T:Copyright © 
T:Copyright © 
T:Copyright © 
C:Anonymous, included in Thomas Warren's
C:collection of catches, canons and glees
Z:Copyright ©
%%score [ ( 1 2 ) ( 3 4 ) ( 5 6 ) ]
L:1/8
M:4/4
K:Bb
V:1 treble nm="P1"
V:2 treble 
V:3 treble nm="P2"
V:4 treble 
V:5 treble nm="P3"
V:6 treble 
V:1
 d4 | B2 G2 z2 G2 | ^F2 A2 z2 A2 | BB G2 B2 c^c | d2 B2 A2 G2 | ^F4 z2 d2 | d2 c4 e2 | e2 d4 f2 | %8
w: Oh|doc- tor, oh|doc- tor, I'm|ter- ri- fied out of my|wits, out of my|wits. Poor|Nan- cy, my|daugh- ter is|
 (f2 e2) d2 c2 | B4 z2 f2 | (f2 e2) d2 c2 | B4 z2 d2 |{c} =B4 B2 B2 | (c=B) c2 z2 c2 | %14
w: fall'n _ in- to|fits, she's|fall'n _ in- to|fits, oh|* tor poor|Nan- * cy is|
{B} A4 A2 A2 | _B4 z2 d2 | (c2 B2) (A2 B2) | A4 G4 | ^F2 d2 B2 G2 | d4 z2 G2 | ^F2 F2 z4 | %21
w: * in- to|fits, but|you _ are _|come, are|come just in the|nick, dear|doc- tor,|
 z2 d2 B2 G2 | d4 G4 | ^F4 G4 | A4 B4 | A2 A2 B2 B2 | !fermata!A4 z2 d2 | e6 e2 | d6 d2 | c4 c4 | %30
w: just in the|nick, you're|come just|in the|nick, just in the|nick, you're|come, you're|come, you're|come dear|
 c4 B2 B2 | A6 A2 | B4 z4 | G4 B4 | A4 d4 | G4 E2 E2 | D4 ^C2 C2 | D2 A2 B4- | B4 A2 A2 | B6 D2 | %40
w: doc- tor, just|in the|nick.|The first|step in|ca- ses like|this, to be|sure is breath-|* ing a|vein, is|
 E4 F2 F2 | G4 D4 | E4 F2 F2 | B,4 F2 F2 | D4 D2 D2 | (E2 F2) G2 E2 | C4 C2 C2 | (D2 E2) F2 B2 | %48
w: breath- ing a|vein, is|breath- ing a|vein. I'll en-|gage for the|cure, _ I'll en-|gage for the|cure _ if you'll|
 A2 G2 ^F2 G2 | ^F2 d2 B2 G2 | D4 z2 G2 | ^F4 G4 | A2 d2 B2 G2 | d4 G4 | ^F4 G4 | A4 B4 | %56
w: let me, let me|but give her a|prick, if|you'll let|me give her a|prick, if|you'll let|me but|
 A4 G2 G2 | ^F2 F2 G2 ^C2 | !fermata!D4 z4 | z2 B2 A4 | z2 A2 G4 | z2 D2 D2 =E2 | ^F4 G4 | %63
w: give her a|prick, give her a|prick,|let me,|let me,|let me but|give her,|
 C4 D2 D2 | G4 G4 | d4 d2 d2 | e4 ^F4 | G2 D2 G2 G2 | ^F4 G2 B2 | A4 D4 | E4 F2 F2 | B,2 F2 B4 | %72
w: give her a|prick. Dear|doc- tor make|haste, dear|doc- tor there's no|time to be|lost, dear|doc- tor make|haste, there's no|
 c4 B2 A2 | B4 B4 | c4 B2 A2 | B4 z4 | z4 (G2 F2) | (E2 D2) C4 | z4 (F2 E2) | (D2 C2) B,2 D2 | %80
w: time to be|lost, no|time to be|lost.|To _|cure _ her|we'll _|spare _ nei- ther|
 E4 E2 ^C2 | D4 G2 B2 | A2 A2 B4 | A2 d2 B2 G2 | d4 G4 | ^F2 F2 z4 | z2 d2 B2 G2 | D2 d2 B2 G2 | %88
w: trou- ble no|cost, but what-|e- ver you|do, do, do it|quick dear|doc- tor,|do, do it|quick dear doc- tor|
 ^F2 d2 B2 G2 | D2 d2 B2 G2 | !fermata!!courtesy!^F4 d4- | d4 c4 | c4 B2 B2 | A2 ^F2 F2 G2 | %94
w: do, do, do it|quick dear doc- tor,|do, but|_ what-|e- ver you|do, dear doc- tor,|
 A4 G4- | G4 ^F4 | G4 d4 | B2 G2 z2 G2 | ^F2 A2 z2 A2 | BB G2 B2 c^c | d2 B2 A2 G2 | ^F4 z2 d2 | %102
w: do, do|_ it|quick. Oh|doc- tor, oh|doc- tor, I'm|ter- ri- fied out of my|wits, out of my|wits. Poor|
 d2 c4 e2 | e2 d4 f2 | (f2 e2) d2 c2 | B4 z2 f2 | (f2 e2) d2 c2 | B4 z2 d2 |{c} =B4 B2 B2 | %109
w: Nan- cy, my|daugh- ter is|fall'n _ in- to|fits, she's|fall'n _ in- to|fits, oh|* tor poor|
 (c=B) c2 z2 c2 |{B} A4 A2 A2 | _B4 z2 d2 | (c2 B2) (A2 B2) | A4 G4 | ^F2 d2 B2 G2 | d4 z2 G2 | %116
w: Nan- * cy is|* in- to|fits, but|you _ are _|come, are|come just in the|nick, dear|
 ^F2 F2 z4 | z2 d2 B2 G2 | d4 G4 | ^F4 G4 | A4 B4 | A2 A2 B2 B2 | !fermata!A4 z2 d2 | e6 e2 | %124
w: doc- tor,|just in the|nick, you're|come just|in the|nick, just in the|nick, you're|come, you're|
 d6 d2 | c4 c4 | c4 B2 B2 | A6 A2 | B4 z4 | G4 B4 | A4 d4 | G4 E2 E2 | D4 ^C2 C2 | D2 A2 B4- | %134
w: come, you're|come dear|doc- tor, just|in the|nick.|The first|step in|ca- ses like|this, to be|sure is breath-|
 B4 A2 A2 | B6 D2 | E4 F2 F2 | G4 D4 | E4 F2 F2 | B,4 F2 F2 | D4 D2 D2 | (E2 F2) G2 E2 | C4 C2 C2 | %143
w: * ing a|vein, is|breath- ing a|vein, is|breath- ing a|vein. I'll en-|gage for the|cure, _ I'll en-|gage for the|
 (D2 E2) F2 B2 | A2 G2 ^F2 G2 | ^F2 d2 B2 G2 | D4 z2 G2 | ^F4 G4 | A2 d2 B2 G2 | d4 G4 | ^F4 G4 | %151
w: cure _ if you'll|let me, let me|but give her a|prick, if|you'll let|me give her a|prick, if|you'll let|
 A4 B4 | A4 G2 G2 | ^F2 F2 G2 ^C2 | !fermata!D4 z4 | z2 B2 A4 | z2 A2 G4 | z2 D2 D2 =E2 | ^F4 G4 | %159
w: me but|give her a|prick, give her a|prick,|let me,|let me,|let me but|give her,|
 C4 D2 D2 |"^Continue ad lib." G4 G4 | %161
w: give her a|prick. Dear~...|
V:2
 x4 | x8 | x8 | x8 | x8 | x8 | x8 | x8 | x8 | x8 | x8 | x8 | x8 | x8 | x8 | x8 | x8 | x8 | x8 | %19
 x8 | x8 | x8 | x8 | x8 | x8 | x8 | x8 | x8 | x8 | x8 | x8 | x8 | G4 x4 | x8 | x8 | x8 | x8 | x8 | %38
 x8 | x8 | x8 | x8 | x8 | x8 | x8 | x8 | x8 | x8 | x8 | x8 | x8 | x8 | x8 | x8 | x8 | x8 | x8 | %57
 x8 | x8 | x8 | x8 | x8 | x8 | x8 | x8 | x8 | x8 | x8 | x8 | x8 | x8 | x8 | x8 | x8 | x8 | x8 | %76
 x8 | x8 | x8 | x8 | x8 | x8 | x8 | x8 | x8 | x8 | x8 | x8 | x8 | x8 | x8 | x8 | x8 | x8 | x8 | %95
 x8 | x8 | x8 | x8 | x8 | x8 | x8 | x8 | x8 | x8 | x8 | x8 | x8 | x8 | x8 | x8 | x8 | x8 | x8 | %114
 x8 | x8 | x8 | x8 | x8 | x8 | x8 | x8 | x8 | x8 | x8 | x8 | x8 | x8 | G4 x4 | x8 | x8 | x8 | x8 | %133
 x8 | x8 | x8 | x8 | x8 | x8 | x8 | x8 | x8 | x8 | x8 | x8 | x8 | x8 | x8 | x8 | x8 | x8 | x8 | %152
 x8 | x8 | x8 | x8 | x8 | x8 | x8 | x8 | x8 | %161
V:3
 z4 | z8 | z8 | z8 | z8 | z8 | z8 | z8 | z8 | z8 | z8 | z8 | z8 | z8 | z8 | z8 | z8 | z8 | z8 | %19
w: |||||||||||||||||||
 z8 | z8 | z8 | z8 | z8 | z8 | z8 | z8 | z8 | z8 | z8 | z8 | z8 | z4 d4 | B2 G2 z2 G2 | %34
w: |||||||||||||Oh|doc- tor, oh|
 ^F2 A2 z2 A2 | BB G2 B2 c^c | d2 B2 A2 G2 | ^F4 z2 d2 | d2 c4 e2 | e2 d4 f2 | (f2 e2) d2 c2 | %41
w: doc- tor, I'm|ter- ri- fied out of my|wits, out of my|wits. Poor|Nan- cy, my|daugh- ter is|fall'n _ in- to|
 B4 z2 f2 | (f2 e2) d2 c2 | B4 z2 d2 |{c} =B4 B2 B2 | (c=B) c2 z2 c2 |{B} A4 A2 A2 | _B4 z2 d2 | %48
w: fits, she's|fall'n _ in- to|fits, oh|* tor poor|Nan- * cy is|* in- to|fits, but|
 (c2 B2) (A2 B2) | A4 G4 | ^F2 d2 B2 G2 | d4 z2 G2 | ^F2 F2 z4 | z2 d2 B2 G2 | d4 G4 | ^F4 G4 | %56
w: you _ are _|come, are|come just in the|nick, dear|doc- tor,|just in the|nick, you're|come just|
 A4 B4 | A2 A2 B2 B2 | !fermata!A4 z2 d2 | e6 e2 | d6 d2 | c4 c4 | c4 B2 B2 | A6 A2 | B4 z4 | %65
w: in the|nick, just in the|nick, you're|come, you're|come, you're|come dear|doc- tor, just|in the|nick.|
 G4 B4 | A4 d4 | G4 E2 E2 | D4 ^C2 C2 | D2 A2 B4- | B4 A2 A2 | B6 D2 | E4 F2 F2 | G4 D4 | %74
w: The first|step in|ca- ses like|this, to be|sure is breath-|* ing a|vein, is|breath- ing a|vein, is|
 E4 F2 F2 | B,4 F2 F2 | D4 D2 D2 | (E2 F2) G2 E2 | C4 C2 C2 | (D2 E2) F2 B2 | A2 G2 ^F2 G2 | %81
w: breath- ing a|vein. I'll en-|gage for the|cure, _ I'll en-|gage for the|cure _ if you'll|let me, let me|
 ^F2 d2 B2 G2 | D4 z2 G2 | ^F4 G4 | A2 d2 B2 G2 | d4 G4 | ^F4 G4 | A4 B4 | A4 G2 G2 | %89
w: but give her a|prick, if|you'll let|me give her a|prick, if|you'll let|me but|give her a|
 ^F2 F2 G2 ^C2 | !fermata!D4 z4 | z2 B2 A4 | z2 A2 G4 | z2 D2 D2 =E2 | ^F4 G4 | C4 D2 D2 | G4 G4 | %97
w: prick, give her a|prick,|let me,|let me,|let me but|give her,|give her a|prick. Dear|
 d4 d2 d2 | e4 ^F4 | G2 D2 G2 G2 | ^F4 G2 B2 | A4 D4 | E4 F2 F2 | B,2 F2 B4 | c4 B2 A2 | B4 B4 | %106
w: doc- tor make|haste, dear|doc- tor there's no|time to be|lost, dear|doc- tor make|haste, there's no|time to be|lost, no|
 c4 B2 A2 | B4 z4 | z4 (G2 F2) | (E2 D2) C4 | z4 (F2 E2) | (D2 C2) B,2 D2 | E4 E2 ^C2 | D4 G2 B2 | %114
w: time to be|lost.|To _|cure _ her|we'll _|spare _ nei- ther|trou- ble no|cost, but what-|
 A2 A2 B4 | A2 d2 B2 G2 | d4 G4 | ^F2 F2 z4 | z2 d2 B2 G2 | D2 d2 B2 G2 | ^F2 d2 B2 G2 | %121
w: e- ver you|do, do, do it|quick dear|doc- tor,|do, do it|quick dear doc- tor|do, do, do it|
 D2 d2 B2 G2 | !courtesy!^F4 d4- | d4 c4 | c4 B2 B2 | A2 ^F2 F2 G2 | A4 G4- | G4 ^F4 | G4 d4 | %129
w: quick dear doc- tor,|do, but|_ what-|e- ver you|do, dear doc- tor,|do, do|_ it|quick. Oh|
 B2 G2 z2 G2 | ^F2 A2 z2 A2 | BB G2 B2 c^c | d2 B2 A2 G2 | ^F4 z2 d2 | d2 c4 e2 | e2 d4 f2 | %136
w: doc- tor, oh|doc- tor, I'm|ter- ri- fied out of my|wits, out of my|wits. Poor|Nan- cy, my|daugh- ter is|
 (f2 e2) d2 c2 | B4 z2 f2 | (f2 e2) d2 c2 | B4 z2 d2 |{c} =B4 B2 B2 | (c=B) c2 z2 c2 | %142
w: fall'n _ in- to|fits, she's|fall'n _ in- to|fits, oh|* tor poor|Nan- * cy is|
{B} A4 A2 A2 | _B4 z2 d2 | (c2 B2) (A2 B2) | A4 G4 | ^F2 d2 B2 G2 | d4 z2 G2 | ^F2 F2 z4 | %149
w: * in- to|fits, but|you _ are _|come, are|come just in the|nick, dear|doc- tor,|
 z2 d2 B2 G2 | d4 G4 | ^F4 G4 | A4 B4 | A2 A2 B2 B2 | !fermata!A4 z2 d2 | e6 e2 | d6 d2 | c4 c4 | %158
w: just in the|nick, you're|come just|in the|nick, just in the|nick, you're|come, you're|come, you're|come dear|
 c4 B2 B2 | A6 A2 | B4 z4 | %161
w: doc- tor, just|in the|nick.|
V:4
 x4 | x8 | x8 | x8 | x8 | x8 | x8 | x8 | x8 | x8 | x8 | x8 | x8 | x8 | x8 | x8 | x8 | x8 | x8 | %19
 x8 | x8 | x8 | x8 | x8 | x8 | x8 | x8 | x8 | x8 | x8 | x8 | x8 | x8 | x8 | x8 | x8 | x8 | x8 | %38
 x8 | x8 | x8 | x8 | x8 | x8 | x8 | x8 | x8 | x8 | x8 | x8 | x8 | x8 | x8 | x8 | x8 | x8 | x8 | %57
 x8 | x8 | x8 | x8 | x8 | x8 | x8 | G4 x4 | x8 | x8 | x8 | x8 | x8 | x8 | x8 | x8 | x8 | x8 | x8 | %76
 x8 | x8 | x8 | x8 | x8 | x8 | x8 | x8 | x8 | x8 | x8 | x8 | x8 | x8 | x8 | x8 | x8 | x8 | x8 | %95
 x8 | x8 | x8 | x8 | x8 | x8 | x8 | x8 | x8 | x8 | x8 | x8 | x8 | x8 | x8 | x8 | x8 | x8 | x8 | %114
 x8 | x8 | x8 | x8 | x8 | x8 | x8 | x8 | x8 | x8 | x8 | x8 | x8 | x8 | x8 | x8 | x8 | x8 | x8 | %133
 x8 | x8 | x8 | x8 | x8 | x8 | x8 | x8 | x8 | x8 | x8 | x8 | x8 | x8 | x8 | x8 | x8 | x8 | x8 | %152
 x8 | x8 | x8 | x8 | x8 | x8 | x8 | x8 | G4 x4 | %161
V:5
 z4 | z8 | z8 | z8 | z8 | z8 | z8 | z8 | z8 | z8 | z8 | z8 | z8 | z8 | z8 | z8 | z8 | z8 | z8 | %19
w: |||||||||||||||||||
 z8 | z8 | z8 | z8 | z8 | z8 | z8 | z8 | z8 | z8 | z8 | z8 | z8 | z8 | z8 | z8 | z8 | z8 | z8 | %38
w: |||||||||||||||||||
 z8 | z8 | z8 | z8 | z8 | z8 | z8 | z8 | z8 | z8 | z8 | z8 | z8 | z8 | z8 | z8 | z8 | z8 | z8 | %57
w: |||||||||||||||||||
 z8 | z8 | z8 | z8 | z8 | z8 | z8 | z4 d4 | B2 G2 z2 G2 | ^F2 A2 z2 A2 | BB G2 B2 c^c | %68
w: |||||||Oh|doc- tor, oh|doc- tor, I'm|ter- ri- fied out of my|
 d2 B2 A2 G2 | ^F4 z2 d2 | d2 c4 e2 | e2 d4 f2 | (f2 e2) d2 c2 | B4 z2 f2 | (f2 e2) d2 c2 | %75
w: wits, out of my|wits. Poor|Nan- cy, my|daugh- ter is|fall'n _ in- to|fits, she's|fall'n _ in- to|
 B4 z2 d2 |{c} =B4 B2 B2 | (c=B) c2 z2 c2 |{B} A4 A2 A2 | _B4 z2 d2 | (c2 B2) (A2 B2) | A4 G4 | %82
w: fits, oh|* tor poor|Nan- * cy is|* in- to|fits, but|you _ are _|come, are|
 ^F2 d2 B2 G2 | d4 z2 G2 | ^F2 F2 z4 | z2 d2 B2 G2 | d4 G4 | ^F4 G4 | A4 B4 | A2 A2 B2 B2 | %90
w: come just in the|nick, dear|doc- tor,|just in the|nick, you're|come just|in the|nick, just in the|
 !fermata!A4 z2 d2 | e6 e2 | d6 d2 | c4 c4 | c4 B2 B2 | A6 A2 | B4 z4 | G4 B4 | A4 d4 | G4 E2 E2 | %100
w: nick, you're|come, you're|come, you're|come dear|doc- tor, just|in the|nick.|The first|step in|ca- ses like|
 D4 ^C2 C2 | D2 A2 B4- | B4 A2 A2 | B6 D2 | E4 F2 F2 | G4 D4 | E4 F2 F2 | B,4 F2 F2 | D4 D2 D2 | %109
w: this, to be|sure is breath-|* ing a|vein, is|breath- ing a|vein, is|breath- ing a|vein. I'll en-|gage for the|
 (E2 F2) G2 E2 | C4 C2 C2 | (D2 E2) F2 B2 | A2 G2 ^F2 G2 | ^F2 d2 B2 G2 | D4 z2 G2 | ^F4 G4 | %116
w: cure, _ I'll en-|gage for the|cure _ if you'll|let me, let me|but give her a|prick, if|you'll let|
 A2 d2 B2 G2 | d4 G4 | ^F4 G4 | A4 B4 | A4 G2 G2 | ^F2 F2 G2 ^C2 | !fermata!D4 z4 | z2 B2 A4 | %124
w: me give her a|prick, if|you'll let|me but|give her a|prick, give her a|prick,|let me,|
 z2 A2 G4 | z2 D2 D2 =E2 | ^F4 G4 | C4 D2 D2 | G4 G4 | d4 d2 d2 | e4 ^F4 | G2 D2 G2 G2 | %132
w: let me,|let me but|give her,|give her a|prick. Dear|doc- tor make|haste, dear|doc- tor there's no|
 ^F4 G2 B2 | A4 D4 | E4 F2 F2 | B,2 F2 B4 | c4 B2 A2 | B4 B4 | c4 B2 A2 | B4 z4 | z4 (G2 F2) | %141
w: time to be|lost, dear|doc- tor make|haste, there's no|time to be|lost, no|time to be|lost.|To _|
 (E2 D2) C4 | z4 (F2 E2) | (D2 C2) B,2 D2 | E4 E2 ^C2 | D4 G2 B2 | A2 A2 B4 | A2 d2 B2 G2 | d4 G4 | %149
w: cure _ her|we'll _|spare _ nei- ther|trou- ble no|cost, but what-|e- ver you|do, do, do it|quick dear|
 ^F2 F2 z4 | z2 d2 B2 G2 | D2 d2 B2 G2 | ^F2 d2 B2 G2 | D2 d2 B2 G2 | !fermata!!courtesy!^F4 d4- | %155
w: doc- tor,|do, do it|quick dear doc- tor|do, do, do it|quick dear doc- tor,|do, but|
 d4 c4 | c4 B2 B2 | A2 ^F2 F2 G2 | A4 G4- | G4 ^F4 | G4 z4 | %161
w: _ what-|e- ver you|do, dear doc- tor,|do, do|_ it|quick.|
V:6
 x4 | x8 | x8 | x8 | x8 | x8 | x8 | x8 | x8 | x8 | x8 | x8 | x8 | x8 | x8 | x8 | x8 | x8 | x8 | %19
 x8 | x8 | x8 | x8 | x8 | x8 | x8 | x8 | x8 | x8 | x8 | x8 | x8 | x8 | x8 | x8 | x8 | x8 | x8 | %38
 x8 | x8 | x8 | x8 | x8 | x8 | x8 | x8 | x8 | x8 | x8 | x8 | x8 | x8 | x8 | x8 | x8 | x8 | x8 | %57
 x8 | x8 | x8 | x8 | x8 | x8 | x8 | x8 | x8 | x8 | x8 | x8 | x8 | x8 | x8 | x8 | x8 | x8 | x8 | %76
 x8 | x8 | x8 | x8 | x8 | x8 | x8 | x8 | x8 | x8 | x8 | x8 | x8 | x8 | x8 | x8 | x8 | x8 | x8 | %95
 x8 | G4 x4 | x8 | x8 | x8 | x8 | x8 | x8 | x8 | x8 | x8 | x8 | x8 | x8 | x8 | x8 | x8 | x8 | x8 | %114
 x8 | x8 | x8 | x8 | x8 | x8 | x8 | x8 | x8 | x8 | x8 | x8 | x8 | x8 | x8 | x8 | x8 | x8 | x8 | %133
 x8 | x8 | x8 | x8 | x8 | x8 | x8 | x8 | x8 | x8 | x8 | x8 | x8 | x8 | x8 | x8 | x8 | x8 | x8 | %152
 x8 | x8 | x8 | x8 | x8 | x8 | x8 | x8 | x8 | %161

